X: 36141
T: Scotch Mary
R: reel
M: 4/4
K: Amixolydian
FGAG FGAG|FDDB, C2AG|FGAG FGAG|FDEF D2DE|
FGAG FGAG|FDDB, C2AG|FGAB cBAG|FDEF DEFA||
d2dc ~A3G|FGAB c2Bc|Addc ~A3G|FDEF DEFA|
d2dc ~A3G|FGAB c2Bc|dBcA (3Bcd AG|FDEF D2DE||
cded cded|cAAF G2ed|cded cded|cABc A2AB|
cded cded|cAAF G2ed|cdef gfed|cABc ABce||
a2ag ~e3d|cdef g2fg|eaag ~e3d|cABc ABce|
a2ag ~e3d|cdef g2fg|afge (3fga ed|cABc A2AB||

